X:1
T:James Gibb editions
T:Te Joseph celebrent - Ravanello
T:#
%%score [ 1 2 3 ]
L:1/8
Q:1/4=96
M:4/4
K:D
V:1 treble nm="Soprano I"
V:2 treble nm="Soprano II"
V:3 treble nm="Alto I" snm="A"
V:1
"^Te Joseph celebrent, op.66/19""^Oreste Ravanello\n (1871-1938)""^moderato"!mf!!<(! E3- E G2 A2!<)! | %1
w: Te, * Jo- seph,|
w: Tu * na- tum|
w: No- bis, sum- ma|
!>(! ((BA) (GF))!>)!"^," E4 | B4 B2 A2 | G2 F2 G4 | G4 B2 c2 |[M:4/4] (dc) (B^A) B2 z2 | B4 c2 d2 | %7
w: ce\- * le\- * brent|ag- mi- na|coe- li- tum,|te cun- cti|re\- * so\- * nent|chri- stia- dum|
w: Do\- * mi\- * num|strin- gis, ad|ex- te- ras|Ae- gi- pti|pro\- * fu\- * gum|se- que- ris|
w: Tri\- * * * as,|par- ce pre-|can- ti- bus,|da Jo- seph|me\- * ri\- * tis|si- de- ra|
 (e2 d2) c4 | z2 d2 e2 f2 | g3 f e4 | z2 c2 d2 e2 | (f3 e d2) ^d2 |"^," e2 e4 e2 | (e2 ^d2) e2 B2 | %14
w: cho\- * ri,|qui cla- rus|me- ri- tis,|jun- ctus es|in\- * * cli-|tae ca- sto|foe\- * de- re|
w: pla\- * gas;|a- mis- sum|So- ly- mis|quae- ris, et|in\- * * ve-|nis, mi- scens|gau\- * di- a|
w: scan- de- re:|ut tan- dem|li- ce- at|nos ti- bi|per\- * * pe-|tim gra- tum|pro\- * me- re|
 (B3 A G2 A2) | (B6 F2) | !fermata!G8 || (E4 G2 A2 | BA GF/E/ F4) | !fermata!^G8 |] %20
w: Vir\- * * *|gi\- *|ni.||||
w: fle\- * * *|ti\- *|bus.||||
w: can\- * * *|ti\- *|cum.|A\- * *||men.|
V:2
!mf!!<(! E3- E G2 A2!<)! |!>(! ((BA) (GF))!>)!"^," E4 | (G3 F) E2 E2 | E2 ^D2 E4 | (E3 F) G2 G2 | %5
w: Te, * Jo- seph,|ce\- * le\- * brent|ag\- * mi- na|coe- li- tum,|te * cun- cti|
w: Tu * na- tum|Do\- * mi\- * num|strin\- * gis, ad|ex- te- ras,|Ae\- * gi- pti|
w: No- bis, sum- ma|Tri\- * * * as,|par\- * ce pre-|can- ti- bus,|da * Jo- seph|
[M:4/4] F3 E F2 B2- | B4 B2 B2 | B2- B2"^," ^A4 | B4 B2 B2 | B3 B B4 | A4 A2 A2 | (A2 ^A2 B2) B2 | %12
w: re- so- nent chri\-|* stia- dum|cho\- * ri,|qui cla- rus|me- ri- tis,|jun- ctus es|in\- * * cli-|
w: pro- fu- gum tu,|se- que- ris|pla\- * gas;|a- mis- sum|So- ly- mis|quae- ris, et|in\- * * ve-|
w: me- ri- tis, si\-|* de- ra|scan- de- re:|ut tan- dem|li- ce- at|nos ti- bi|per\- * * pe-|
"^," B2 B4 B2 | A4 G2 G2 | E8- | E2 (^DC D4) | !fermata!E8 || (E8 | ^D2 E4 D2) | !fermata!E8 |] %20
w: tae ca- sto|foe- de- re|Vir\-|* gi\- * *|ni.||||
w: nis, mi- scens|gau- di- a|fle\-|* ti\- * *|bus.||||
w: tim gra- tum|pro- me- re|can\-|* ti\- * *|cum.|A\-||men.|
V:3
!mf!!<(! E3- E G2 A2!<)! |!>(! ((BA) (GF))!>)!"^," E4 | E3 D =C2 C2 | B,2 B,2 E4 | E4 E2 E2 | %5
w: Te, * Jo- seph,|ce\- * le\- * brent|ag- * mi- na|coe- li- tum,|te cun- cti|
w: Tu * na- tum|Do\- * mi\- * num|strin- * gis, ad|ex- te- ras|Ae- gi- pti|
w: No- bis, sum- ma|Tri\- * * * as,|par- * ce pre-|can- ti- bus|da Jo- seph|
[M:4/4] B,3 C D2 z2 | D4 E2 F2 | (G2 (F^E)) F4 | z2 B,2 C2 D2 | E3 F G4 | z2 A,2 B,2 C2 | %11
w: re- so- nent|chri- stia- dum|cho\- * * ri,|qui cla- rus|me- ri- tis,|jun- ctus es|
w: pro- fu- gum|se- que- ris|pla\- * * gas;|a- mis- sum|So- ly- mis|quae- ris, et|
w: me- ri- tis|si- de- ra|scan- de\- * re:|ut tan- dem|li- ce- at|nos ti- bi|
 (D3 C B,2) A,2 |"^," G,2 G4 G2 | F4 E2 E2 | =C8 | B,8 | !fermata!E8 || (E3 D =C4 | B,8) | %19
w: in\- * * cli-|tae ca- sto|foe- de- re|Vir-|gi-|ni.|||
w: in\- * * ve-|nis, mi- scens|gau- di- a|fle-|ti-|bus.|||
w: per\- * * pe-|tim gra- tum|pro- me- re|can-|ti-|cum.|A\- * *||
 !fermata!E8 |] %20
w: |
w: |
w: men.|

